dist/images/logo/footer_logo_01.svg

<svg width="310" height="34" viewBox="0 0 310 34" fill="none" xmlns="http://www.w3.org/2000/svg">
<g clip-path="url(#clip0_430_57771)">
<path d="M46.4173 0H60.6014L63.9962 17.1177H64.0971L77.5417 0H91.0536L81.9448 34H70.9538L75.3906 17.4204H75.2897L63.2568 34H56.6017L52.938 16.6469H52.8372L48.1315 34H37.3086L46.4173 0Z" fill="white"/>
<path d="M94.9193 0H106.246L97.1377 34H85.8105L94.9193 0Z" fill="white"/>
<path d="M45.6782 0H31.5277L3.26033 21.7587L0 34H10.7557L13.2766 24.6172L18.5872 20.8843L25.4776 34H37.1408L26.7885 14.6963L45.6782 0Z" fill="white"/>
<path d="M27.7295 0H9.10863L4.26855 18.093L27.7295 0Z" fill="white"/>
<path d="M110.078 22.1631H112.969V25.896L116.027 22.1631H119.893L116.464 25.8624L120.027 32.0503H116.464L114.481 27.9811L112.969 29.629V32.0503H110.078V22.1631Z" fill="white"/>
<path d="M119.96 27.1059C119.96 25.4917 120.397 24.2474 121.237 23.3393C122.077 22.4313 123.288 21.9941 124.8 21.9941C126.346 21.9941 127.556 22.4313 128.396 23.3057C129.237 24.1801 129.674 25.4244 129.674 27.005C129.674 28.1484 129.472 29.0901 129.136 29.8299C128.766 30.5698 128.228 31.1415 127.523 31.5451C126.817 31.9486 125.943 32.1504 124.934 32.1504C123.893 32.1504 122.985 31.9823 122.313 31.6123C121.607 31.2424 121.069 30.7043 120.632 29.9308C120.162 29.2246 119.96 28.283 119.96 27.1059ZM122.851 27.1059C122.851 28.1148 123.019 28.821 123.388 29.2582C123.724 29.6954 124.229 29.8972 124.834 29.8972C125.472 29.8972 125.943 29.6954 126.279 29.2582C126.615 28.821 126.783 28.0812 126.783 26.9714C126.783 26.0634 126.615 25.3571 126.245 24.9536C125.876 24.5164 125.405 24.3146 124.8 24.3146C124.229 24.3146 123.758 24.5164 123.388 24.9536C123.019 25.3908 122.851 26.1306 122.851 27.1059Z" fill="white"/>
<path d="M131.085 32.0503V22.1631H135.925C136.833 22.1631 137.505 22.2303 137.975 22.3985C138.446 22.5666 138.816 22.8693 139.118 23.3065C139.421 23.7437 139.555 24.2818 139.555 24.9208C139.555 25.4588 139.454 25.9297 139.219 26.3332C138.984 26.7368 138.681 27.0394 138.311 27.3085C138.076 27.4766 137.706 27.6112 137.303 27.712C137.639 27.8466 137.908 27.9475 138.043 28.082C138.143 28.1829 138.311 28.351 138.513 28.6201C138.715 28.8891 138.849 29.0909 138.916 29.2254L140.328 32.084H137.068L135.522 29.0573C135.32 28.6537 135.152 28.4183 134.984 28.2838C134.782 28.1156 134.547 28.0483 134.278 28.0483H134.009V32.0503H131.085ZM133.976 26.1651H135.186C135.32 26.1651 135.589 26.1314 135.959 26.0305C136.16 25.9969 136.295 25.896 136.429 25.7279C136.564 25.5597 136.597 25.3579 136.597 25.1562C136.597 24.8535 136.496 24.5845 136.295 24.4163C136.093 24.2482 135.723 24.1473 135.219 24.1473H133.942V26.1651H133.976Z" fill="white"/>
<path d="M141.001 22.1631H148.799V24.2818H143.925V25.8624H148.429V27.8802H143.925V29.8307H148.933V32.0503H141.001V22.1631Z" fill="white"/>
<path d="M156.025 30.4361H152.731L152.261 32.0503H149.303L152.832 22.1631H156.025L159.521 32.0503H156.496L156.025 30.4361ZM155.386 28.2838L154.378 24.719L153.336 28.2838H155.386Z" fill="white"/>
<path d="M164.361 22.1631H168.193L169.672 28.1829L171.151 22.1631H174.949V32.0503H172.563V24.5172L170.714 32.0503H168.563L166.714 24.5172V32.0503H164.361V22.1631Z" fill="white"/>
<path d="M176.528 22.1631H184.326V24.2818H179.453V25.8624H183.956V27.8802H179.453V29.8307H184.461V32.0503H176.528V22.1631Z" fill="white"/>
<path d="M185.839 22.1631H190.141C190.981 22.1631 191.687 22.2976 192.191 22.533C192.729 22.7684 193.133 23.1384 193.502 23.5755C193.838 24.0127 194.074 24.5508 194.242 25.1562C194.41 25.7615 194.477 26.4005 194.477 27.0731C194.477 28.1492 194.376 28.9564 194.141 29.5281C193.906 30.0998 193.603 30.6042 193.2 31.0078C192.796 31.4114 192.36 31.6468 191.889 31.7813C191.25 31.9494 190.679 32.0503 190.175 32.0503H185.872V22.1631H185.839ZM188.729 24.3827V29.7635H189.435C190.04 29.7635 190.477 29.6962 190.746 29.5617C191.015 29.4272 191.217 29.1581 191.351 28.8218C191.486 28.4519 191.553 27.9138 191.553 27.1067C191.553 26.0642 191.385 25.3579 191.082 24.9544C190.746 24.5508 190.208 24.3827 189.469 24.3827H188.729Z" fill="white"/>
<path d="M195.889 22.1631H198.813V32.0503H195.889V22.1631Z" fill="white"/>
<path d="M206.913 27.9807L209.468 28.7878C209.3 29.5277 209.031 30.1667 208.661 30.6711C208.292 31.1756 207.821 31.5455 207.283 31.8145C206.745 32.0836 206.04 32.1845 205.199 32.1845C204.191 32.1845 203.351 32.0163 202.678 31.7137C202.04 31.411 201.468 30.8393 200.998 30.0658C200.527 29.2923 200.292 28.2834 200.292 27.0391C200.292 25.3912 200.695 24.1469 201.536 23.2725C202.376 22.3981 203.519 21.9609 205.031 21.9609C206.208 21.9609 207.149 22.23 207.821 22.7344C208.493 23.2389 208.997 24.0124 209.334 25.0549L206.779 25.6602C206.678 25.3576 206.577 25.1558 206.51 25.0213C206.342 24.7859 206.14 24.6177 205.905 24.4832C205.67 24.3487 205.401 24.2814 205.132 24.2814C204.46 24.2814 203.989 24.5505 203.62 25.1222C203.351 25.5257 203.216 26.1983 203.216 27.0727C203.216 28.1489 203.384 28.9224 203.687 29.3259C204.023 29.7295 204.46 29.9313 205.031 29.9313C205.603 29.9313 206.006 29.7631 206.275 29.4268C206.577 29.0905 206.779 28.6197 206.913 27.9807Z" fill="white"/>
<path d="M216.391 30.4361H213.097L212.627 32.0503H209.669L213.198 22.1631H216.391L219.887 32.0503H216.862L216.391 30.4361ZM215.786 28.2838L214.778 24.719L213.736 28.2838H215.786Z" fill="white"/>
<path d="M220.627 22.1631H223.518V29.5953H228.055V32.0167H220.627V22.1631Z" fill="white"/>
<path d="M233.365 22.1631H236.289V32.0503H233.365V22.1631Z" fill="white"/>
<path d="M238.172 22.1631H240.861L244.39 27.6112V22.1631H247.113V32.0503H244.39L240.894 26.6023V32.0503H238.172V22.1631Z" fill="white"/>
<path d="M248.356 28.7878L251.113 28.6197C251.18 29.0905 251.281 29.4604 251.482 29.6959C251.751 30.0658 252.188 30.2676 252.726 30.2676C253.129 30.2676 253.465 30.1667 253.667 29.9649C253.902 29.7631 254.003 29.5277 254.003 29.2587C254.003 28.9896 253.902 28.7878 253.701 28.5861C253.499 28.3843 252.995 28.1825 252.222 28.0143C250.945 27.7117 250.037 27.3081 249.499 26.8037C248.961 26.2992 248.693 25.6602 248.693 24.8868C248.693 24.3823 248.827 23.9115 249.096 23.4407C249.365 23.0035 249.802 22.6335 250.34 22.3645C250.911 22.0955 251.684 21.9609 252.659 21.9609C253.869 21.9609 254.776 22.1963 255.415 22.6672C256.054 23.138 256.423 23.8779 256.524 24.8868L253.802 25.0549C253.734 24.6177 253.566 24.2814 253.331 24.1133C253.096 23.9115 252.793 23.8106 252.356 23.8106C252.02 23.8106 251.751 23.8779 251.583 24.046C251.415 24.2142 251.314 24.3823 251.314 24.5841C251.314 24.7522 251.381 24.8868 251.516 25.0213C251.65 25.1558 251.987 25.2903 252.491 25.3912C253.768 25.6939 254.675 25.9629 255.213 26.2656C255.751 26.5683 256.154 26.9382 256.423 27.3754C256.659 27.8126 256.793 28.2834 256.793 28.8215C256.793 29.4604 256.625 30.0322 256.289 30.5702C255.953 31.1083 255.482 31.5119 254.877 31.7809C254.272 32.05 253.533 32.1845 252.625 32.1845C251.045 32.1845 249.936 31.8482 249.298 31.2092C248.76 30.6039 248.424 29.7631 248.356 28.7878Z" fill="white"/>
<path d="M257.432 22.1631H266.238V24.5845H263.28V32.0167H260.389V24.5845H257.432V22.1631Z" fill="white"/>
<path d="M267.447 22.1631H270.371V32.0503H267.447V22.1631Z" fill="white"/>
<path d="M271.582 22.1631H280.388V24.5845H277.43V32.0167H274.54V24.5845H271.582V22.1631Z" fill="white"/>
<path d="M287.581 22.1631H290.472V28.0483C290.472 28.6201 290.371 29.1918 290.203 29.6962C290.035 30.2007 289.766 30.6715 289.396 31.0414C289.027 31.445 288.623 31.714 288.254 31.8485C287.682 32.0503 287.01 32.1848 286.237 32.1848C285.766 32.1848 285.296 32.1512 284.758 32.084C284.22 32.0167 283.75 31.8822 283.413 31.6804C283.044 31.4786 282.708 31.2096 282.405 30.8396C282.103 30.4697 281.901 30.0998 281.8 29.6962C281.632 29.0572 281.531 28.5192 281.531 28.0147V22.1631H284.422V28.1829C284.422 28.7209 284.556 29.1581 284.859 29.4272C285.128 29.7299 285.531 29.898 286.035 29.898C286.539 29.898 286.909 29.7299 287.212 29.4608C287.481 29.1581 287.649 28.7546 287.649 28.1829V22.1631H287.581Z" fill="white"/>
<path d="M291.514 22.1631H300.32V24.5845H297.362V32.0167H294.471V24.5845H291.514V22.1631Z" fill="white"/>
<path d="M301.396 22.1631H309.193V24.2818H304.32V25.8624H308.824V27.8802H304.32V29.8307H309.328V32.0503H301.396V22.1631Z" fill="white"/>
<path d="M154.715 4.91H152.765V1.07617H147.824V15.5035H152.765V7.09595H154.715V4.91Z" fill="white"/>
<path d="M147.119 7.86963C147.119 6.62532 146.312 5.48189 144.967 4.60751H146.715V2.45519H140.732V0.908203H135.791V2.42156H129.506L131.556 4.57388C130.212 5.44826 129.405 6.59169 129.405 7.836C129.405 10.5937 133.371 12.8132 138.279 12.8132C143.152 12.8469 147.119 10.6273 147.119 7.86963ZM134.951 7.86963C134.951 6.3899 136.43 5.21285 138.279 5.21285C140.127 5.21285 141.606 6.3899 141.606 7.86963C141.606 9.31572 140.127 10.5264 138.279 10.5264C136.43 10.4928 134.951 9.31572 134.951 7.86963Z" fill="white"/>
<path d="M135.691 13.5195H130.75V17.0171C130.75 18.1941 131.658 19.1694 132.8 19.1694H152.732V17.0171H135.657V13.5195H135.691Z" fill="white"/>
<path d="M241.264 13.5195H236.323V17.0171C236.323 18.1941 237.231 19.1694 238.374 19.1694H258.641V17.0171H241.264V13.5195Z" fill="white"/>
<path d="M253.701 1.07617V2.92583H250.81L252.861 5.07815H253.701V6.65876H250.911C250.945 6.45698 250.978 6.2552 250.978 6.05342C250.978 3.29576 247.516 1.07617 243.248 1.07617C238.979 1.07617 235.483 3.29576 235.483 6.05342C235.483 8.81109 238.945 11.0307 243.248 11.0307C247.147 11.0307 250.407 9.14739 250.911 6.75965L252.894 8.84472H253.734V14.6627H258.675V1.07617H253.701ZM243.214 8.74383C241.601 8.74383 240.323 7.56678 240.323 6.08705C240.323 4.64096 241.634 3.43028 243.214 3.43028C244.827 3.43028 246.105 4.60733 246.105 6.08705C246.138 7.53315 244.827 8.74383 243.214 8.74383Z" fill="white"/>
<path d="M300.253 16.6133V10.9971H294.607V16.6133H283.985L286.439 19.1692H309.463V16.6133H300.253Z" fill="white"/>
<path d="M296.388 3.2285H299.043L306.774 12.4095H310.001L301.8 2.82494L303.48 1.07617H294.943H292.019L284.859 12.4095H290.674L296.388 3.2285Z" fill="white"/>
<path d="M233.669 4.91H231.719V1.07617H226.778V12.3086H231.719V7.09595H233.669V4.91Z" fill="white"/>
<path d="M208.527 7.4997C208.527 10.0556 212.326 12.107 216.998 12.107C221.67 12.107 225.468 10.0556 225.468 7.4997C225.468 6.42353 224.762 5.41463 223.619 4.64114H225.602V2.45519H219.451V0.908203H214.51V2.42156H208.359L210.41 4.54025C209.233 5.381 208.527 6.3899 208.527 7.4997ZM216.964 9.92106C215.216 9.92106 213.804 8.81127 213.804 7.46607C213.804 6.12086 215.216 5.01107 216.964 5.01107C218.712 5.01107 220.123 6.12086 220.123 7.46607C220.157 8.8449 218.712 9.92106 216.964 9.92106Z" fill="white"/>
<path d="M229.669 13.5195H208.863L210.914 15.6719H226.778V19.1694H231.719V15.7055C231.719 14.4948 230.812 13.5195 229.669 13.5195Z" fill="white"/>
<path d="M284.221 10.2572H281.868C282.675 10.2572 283.347 9.55095 283.347 8.67657V3.2285C283.347 2.01781 282.439 1.07617 281.297 1.07617H260.323L262.373 3.2285H278.406V8.67657C278.406 9.55095 277.734 10.2236 276.927 10.2572H259.953L262.003 12.4095H269.936V19.1691H274.877V12.4095H284.187V10.2572H284.221Z" fill="white"/>
<path d="M179.789 9.58439V7.39844H155.555L157.605 9.55076H165.941V12.8465H156.16L158.21 14.9988H174.243V19.169H179.184V15.0325C179.184 13.8218 178.276 12.8801 177.133 12.8801H170.882V9.58439H179.789Z" fill="white"/>
<path d="M174.243 3.2285V5.81801C174.243 6.69239 173.57 7.39863 172.73 7.39863H177.671C178.511 7.39863 179.15 6.69239 179.15 5.81801V3.2285C179.15 2.01781 178.242 1.07617 177.1 1.07617H156.126L158.176 3.2285H174.243Z" fill="white"/>
<path d="M190.814 12.8466C195.721 12.8466 199.654 10.1898 199.654 6.92768C199.654 3.66556 195.688 1.00879 190.814 1.00879C185.907 1.00879 181.94 3.66556 181.94 6.92768C181.94 10.1898 185.907 12.8466 190.814 12.8466ZM190.814 3.49741C192.797 3.49741 194.41 5.01077 194.41 6.89405C194.41 8.77734 192.797 10.2907 190.814 10.2907C188.831 10.2907 187.217 8.77734 187.217 6.89405C187.217 5.01077 188.831 3.49741 190.814 3.49741Z" fill="white"/>
<path d="M200.662 1.07617V10.8625C200.662 12.7122 199.217 14.2255 197.435 14.2255H180.831L182.881 16.3779H198.208C199.183 16.3779 200.023 15.9407 200.628 15.2344V19.1691H205.569V1.07617H200.662Z" fill="white"/>
<path d="M115.288 2.3877V4.94358H115.994V2.3877H117.54V9.98809H115.994V6.25515H115.288V9.98809H113.809V8.44111L112.801 9.34912C112.398 9.18097 112.062 8.97919 111.793 8.74378C111.591 8.57563 111.423 8.37385 111.288 8.17207C111.188 8.37385 111.02 8.57563 110.784 8.74378C110.515 8.97919 110.179 9.18097 109.776 9.34912L108.768 8.40748C109.272 8.17207 109.675 7.83577 109.91 7.43221C110.213 6.96138 110.381 6.32241 110.381 5.54892V3.63201H109.473V2.45496H113.003V3.63201H112.095V5.54892C112.095 6.35604 112.23 6.96138 112.532 7.46584C112.801 7.8694 113.204 8.2057 113.708 8.44111V2.3877H115.288Z" fill="white"/>
<path d="M124.363 2.45538V3.76696H121.271V5.44846H124.867V2.35449H126.951V4.23778H127.825V5.51572H126.951V7.76893H124.867V6.7264H120.464C120.061 6.7264 119.725 6.62551 119.523 6.45736C119.322 6.28921 119.221 6.02017 119.221 5.68387V2.45538H124.363ZM122.01 8.67695H127.019V9.95489H121.204C120.8 9.95489 120.464 9.854 120.263 9.68585C120.061 9.48407 119.96 9.24866 119.96 8.91236V7.26448H122.044V8.67695H122.01Z" fill="white"/>
<path d="M111.591 11.6702V12.2083H112.532V11.6702H114.549V12.8473H115.322V11.5693H117.406V15.6386H115.322V14.1589H114.549V15.4032H110.851C110.448 15.4032 110.112 15.3023 109.91 15.1341C109.709 14.966 109.574 14.6969 109.574 14.3606V11.6702H111.591ZM112.162 15.9076V16.2775H115.355V15.9076H117.439V19.1697H111.356C110.952 19.1697 110.616 19.0688 110.415 18.9007C110.213 18.7325 110.112 18.4635 110.112 18.1272V15.9076H112.162ZM111.591 13.4526V14.1589H112.532V13.4526H111.591ZM112.162 17.4882V17.9927H115.355V17.4882H112.162Z" fill="white"/>
<path d="M123.758 12.174C124.229 12.5776 124.464 13.082 124.464 13.6874C124.464 14.2927 124.229 14.7971 123.758 15.2007C123.254 15.6715 122.548 15.9069 121.708 15.9069C120.834 15.9069 120.162 15.6715 119.658 15.2007C119.187 14.7971 118.985 14.2927 118.985 13.6874C118.985 13.082 119.221 12.5776 119.658 12.174C120.162 11.7032 120.868 11.4678 121.708 11.4678C122.548 11.4678 123.254 11.7032 123.758 12.174ZM121.809 17.8911H127.119V19.1691H121.002C120.565 19.1691 120.263 19.0682 120.061 18.9C119.859 18.7319 119.725 18.4628 119.725 18.1265V16.445H121.809V17.8911ZM121.103 12.9139C120.968 13.1156 120.901 13.3847 120.901 13.6874C120.901 13.99 120.968 14.2591 121.103 14.4608C121.237 14.6963 121.439 14.7971 121.708 14.7971C121.977 14.7971 122.178 14.6963 122.313 14.4608C122.447 14.2591 122.515 14.0237 122.515 13.6874C122.515 13.3847 122.447 13.1156 122.313 12.9139C122.178 12.7121 121.943 12.5776 121.708 12.5776C121.439 12.5776 121.237 12.6785 121.103 12.9139ZM127.052 11.5687V16.9831H124.968V11.5687H127.052Z" fill="white"/>
</g>
<defs>
<clipPath id="clip0_430_57771">
<rect width="310" height="34" fill="white"/>
</clipPath>
</defs>
</svg>

<svg width="310" height="34" fill="none" xmlns="http://www.w3.org/2000/svg"><g clip-path="url(#clip0_430_57771)" fill="#fff"><path d="M46.417 0h14.184l3.395 17.118h.101L77.542 0h13.512l-9.11 34h-10.99l4.437-16.58h-.101L63.257 34h-6.655l-3.664-17.353h-.1L48.131 34H37.309l9.108-34zM94.92 0h11.326l-9.108 34H85.81l9.11-34zM45.678 0h-14.15L3.26 21.759 0 34h10.756l2.52-9.383 5.311-3.733L25.477 34h11.664L26.789 14.696 45.678 0zM27.73 0H9.109l-4.84 18.093L27.729 0zm82.348 22.163h2.891v3.733l3.058-3.733h3.866l-3.429 3.7 3.563 6.187h-3.563l-1.983-4.069-1.512 1.648v2.421h-2.891v-9.887z"/><path d="M119.96 27.106c0-1.614.437-2.859 1.277-3.767.84-.908 2.051-1.345 3.563-1.345 1.546 0 2.756.437 3.596 1.312.841.874 1.278 2.118 1.278 3.699 0 1.143-.202 2.085-.538 2.825a3.984 3.984 0 01-1.613 1.715c-.706.404-1.58.605-2.589.605-1.041 0-1.949-.168-2.621-.538-.706-.37-1.244-.908-1.681-1.681-.47-.706-.672-1.648-.672-2.825zm2.891 0c0 1.009.168 1.715.537 2.152.336.437.841.64 1.446.64.638 0 1.109-.203 1.445-.64.336-.437.504-1.177.504-2.287 0-.908-.168-1.614-.538-2.017-.369-.438-.84-.64-1.445-.64-.571 0-1.042.202-1.412.64-.369.437-.537 1.177-.537 2.152zm8.234 4.944v-9.887h4.84c.908 0 1.58.067 2.05.235.471.169.841.471 1.143.909.303.437.437.975.437 1.614 0 .538-.101 1.009-.336 1.412a3.143 3.143 0 01-.908.976c-.235.168-.605.302-1.008.403.336.135.605.236.74.37.1.1.268.269.47.538.202.27.336.47.403.605l1.412 2.859h-3.26l-1.546-3.027c-.202-.403-.37-.639-.538-.773a1.055 1.055 0 00-.706-.236h-.269v4.002h-2.924zm2.891-5.885h1.21c.134 0 .403-.034.773-.134.201-.034.336-.135.47-.303.135-.168.168-.37.168-.572 0-.302-.101-.572-.302-.74-.202-.168-.572-.269-1.076-.269h-1.277v2.018h.034zm7.025-4.002h7.798v2.119h-4.874v1.58h4.504v2.018h-4.504v1.95h5.008v2.22h-7.932v-9.887zm15.024 8.273h-3.294l-.47 1.614h-2.958l3.529-9.887h3.193l3.496 9.887h-3.025l-.471-1.614zm-.639-2.152l-1.008-3.565-1.042 3.565h2.05zm8.975-6.121h3.832l1.479 6.02 1.479-6.02h3.798v9.887h-2.386v-7.533l-1.849 7.533h-2.151l-1.849-7.533v7.533h-2.353v-9.887zm12.167 0h7.798v2.119h-4.873v1.58h4.503v2.018h-4.503v1.95h5.008v2.22h-7.933v-9.887zm9.311 0h4.302c.84 0 1.546.135 2.05.37.538.235.942.605 1.311 1.043.336.437.572.975.74 1.58.168.606.235 1.245.235 1.917 0 1.076-.101 1.883-.336 2.455-.235.572-.538 1.076-.941 1.48a2.95 2.95 0 01-1.311.773c-.639.168-1.21.27-1.714.27h-4.303v-9.888h-.033zm2.89 2.22v5.38h.706c.605 0 1.042-.067 1.311-.201.269-.135.471-.404.605-.74.135-.37.202-.908.202-1.715 0-1.043-.168-1.75-.471-2.153-.336-.403-.874-.571-1.613-.571h-.74zm7.16-2.22h2.924v9.887h-2.924v-9.887zm11.024 5.817l2.555.808c-.168.74-.437 1.379-.807 1.883a3.75 3.75 0 01-1.378 1.143c-.538.27-1.243.37-2.084.37-1.008 0-1.848-.168-2.521-.47-.638-.303-1.21-.875-1.68-1.648-.471-.774-.706-1.783-.706-3.027 0-1.648.403-2.892 1.244-3.767.84-.874 1.983-1.311 3.495-1.311 1.177 0 2.118.269 2.79.773.672.505 1.176 1.278 1.513 2.32l-2.555.606c-.101-.302-.202-.504-.269-.639a1.844 1.844 0 00-.605-.538 1.56 1.56 0 00-.773-.202c-.672 0-1.143.27-1.512.841-.269.404-.404 1.076-.404 1.95 0 1.077.168 1.85.471 2.254.336.404.773.605 1.344.605.572 0 .975-.168 1.244-.504.302-.337.504-.807.638-1.446zm9.478 2.456h-3.294l-.47 1.614h-2.958l3.529-9.887h3.193l3.496 9.887h-3.025l-.471-1.614zm-.605-2.152l-1.008-3.565-1.042 3.565h2.05zm4.841-6.121h2.891v7.432h4.537v2.422h-7.428v-9.854zm12.738 0h2.924v9.887h-2.924v-9.887zm4.807 0h2.689l3.529 5.448v-5.448h2.723v9.887h-2.723l-3.496-5.448v5.448h-2.722v-9.887zm10.184 6.625l2.757-.168c.067.47.168.84.369 1.076.269.37.706.572 1.244.572.403 0 .739-.101.941-.303a.89.89 0 00.336-.706c0-.27-.101-.471-.302-.673-.202-.202-.706-.403-1.479-.572-1.277-.302-2.185-.706-2.723-1.21-.538-.505-.806-1.144-.806-1.917 0-.505.134-.976.403-1.446.269-.438.706-.807 1.244-1.076.571-.27 1.344-.404 2.319-.404 1.21 0 2.117.235 2.756.706.639.471 1.008 1.21 1.109 2.22l-2.722.168c-.068-.437-.236-.774-.471-.942-.235-.201-.538-.302-.975-.302-.336 0-.605.067-.773.235-.168.168-.269.336-.269.538 0 .168.067.303.202.437.134.135.471.27.975.37 1.277.303 2.184.572 2.722.875.538.302.941.672 1.21 1.11.236.437.37.907.37 1.445 0 .64-.168 1.211-.504 1.75a3.11 3.11 0 01-1.412 1.21c-.605.269-1.344.404-2.252.404-1.58 0-2.689-.337-3.327-.976-.538-.605-.874-1.446-.942-2.421zm9.076-6.625h8.806v2.421h-2.958v7.433h-2.891v-7.433h-2.957v-2.42zm10.015 0h2.924v9.887h-2.924v-9.887zm4.135 0h8.806v2.421h-2.958v7.433h-2.89v-7.433h-2.958v-2.42zm15.999 0h2.891v5.885a5.29 5.29 0 01-.269 1.648 3.428 3.428 0 01-.807 1.345c-.369.404-.773.673-1.142.808a6.027 6.027 0 01-2.017.336c-.471 0-.941-.034-1.479-.101-.538-.067-1.008-.202-1.345-.404a3.379 3.379 0 01-1.008-.84c-.302-.37-.504-.74-.605-1.144-.168-.639-.269-1.177-.269-1.681v-5.852h2.891v6.02c0 .538.134.975.437 1.244.269.303.672.471 1.176.471.504 0 .874-.168 1.177-.437.269-.303.437-.706.437-1.278v-6.02h-.068zm3.933 0h8.806v2.421h-2.958v7.433h-2.891v-7.433h-2.957v-2.42zm9.882 0h7.797v2.119h-4.873v1.58h4.504v2.018h-4.504v1.95h5.008v2.22h-7.932v-9.887zM154.715 4.91h-1.95V1.076h-4.941v14.428h4.941V7.096h1.95V4.91zm-7.596 2.96c0-1.245-.807-2.388-2.152-3.262h1.748V2.455h-5.983V.908h-4.941v1.514h-6.285l2.05 2.152c-1.344.874-2.151 2.018-2.151 3.262 0 2.758 3.966 4.977 8.874 4.977 4.873.034 8.84-2.186 8.84-4.943zm-12.168 0c0-1.48 1.479-2.657 3.328-2.657 1.848 0 3.327 1.177 3.327 2.657 0 1.446-1.479 2.656-3.327 2.656-1.849-.033-3.328-1.21-3.328-2.656zm.74 5.65h-4.941v3.497c0 1.177.908 2.152 2.05 2.152h19.932v-2.152h-17.075V13.52h.034zm105.573 0h-4.941v3.497c0 1.177.908 2.152 2.051 2.152h20.267v-2.152h-17.377V13.52zm12.437-12.444v1.85h-2.891l2.051 2.152h.84v1.58h-2.79a3.65 3.65 0 00.067-.605c0-2.757-3.462-4.977-7.73-4.977-4.269 0-7.765 2.22-7.765 4.977 0 2.758 3.462 4.978 7.765 4.978 3.899 0 7.159-1.884 7.663-4.271l1.983 2.085h.84v5.818h4.941V1.076h-4.974zm-10.487 7.668c-1.613 0-2.891-1.177-2.891-2.657 0-1.446 1.311-2.657 2.891-2.657 1.613 0 2.891 1.177 2.891 2.657.033 1.446-1.278 2.657-2.891 2.657zm57.039 7.869v-5.616h-5.646v5.616h-10.622l2.454 2.556h23.024v-2.556h-9.21z"/><path d="M296.388 3.228h2.655l7.731 9.181h3.227L301.8 2.825l1.68-1.749h-11.461l-7.16 11.334h5.815l5.714-9.181zM233.669 4.91h-1.95V1.076h-4.941V12.31h4.941V7.096h1.95V4.91zM208.527 7.5c0 2.556 3.799 4.607 8.471 4.607 4.672 0 8.47-2.051 8.47-4.607 0-1.076-.706-2.085-1.849-2.859h1.983V2.455h-6.151V.908h-4.941v1.514h-6.151l2.051 2.118c-1.177.841-1.883 1.85-1.883 2.96zm8.437 2.421c-1.748 0-3.16-1.11-3.16-2.455s1.412-2.455 3.16-2.455c1.748 0 3.159 1.11 3.159 2.455.034 1.379-1.411 2.455-3.159 2.455zm12.705 3.599h-20.806l2.051 2.152h15.864v3.497h4.941v-3.463c0-1.211-.907-2.186-2.05-2.186zm54.552-3.263h-2.353c.807 0 1.479-.706 1.479-1.58V3.229c0-1.211-.908-2.153-2.05-2.153h-20.974l2.05 2.152h16.033v5.449a1.56 1.56 0 01-1.479 1.58h-16.974l2.05 2.152h7.933v6.76h4.941v-6.76h9.31v-2.152h.034zm-104.432-.673V7.398h-24.234l2.05 2.153h8.336v3.296h-9.781l2.05 2.152h16.033v4.17h4.941v-4.136c0-1.211-.908-2.153-2.051-2.153h-6.251V9.584h8.907zm-5.546-6.356v2.59c0 .874-.673 1.58-1.513 1.58h4.941c.84 0 1.479-.706 1.479-1.58v-2.59c0-1.21-.908-2.152-2.05-2.152h-20.974l2.05 2.152h16.067zm16.571 9.619c4.907 0 8.84-2.657 8.84-5.92 0-3.261-3.966-5.918-8.84-5.918-4.907 0-8.874 2.657-8.874 5.919 0 3.262 3.967 5.919 8.874 5.919zm0-9.35c1.983 0 3.596 1.514 3.596 3.397 0 1.883-1.613 3.397-3.596 3.397s-3.597-1.514-3.597-3.397c0-1.883 1.614-3.397 3.597-3.397z"/><path d="M200.662 1.076v9.787c0 1.85-1.445 3.363-3.227 3.363h-16.604l2.05 2.152h15.327c.975 0 1.815-.437 2.42-1.144v3.935h4.941V1.076h-4.907zm-85.374 1.312v2.556h.706V2.388h1.546v7.6h-1.546V6.255h-.706v3.733h-1.479V8.441l-1.008.908a3.653 3.653 0 01-1.008-.605 2.689 2.689 0 01-.505-.572c-.1.202-.268.404-.504.572a3.653 3.653 0 01-1.008.605l-1.008-.942c.504-.235.907-.571 1.142-.975.303-.47.471-1.11.471-1.883V3.632h-.908V2.455h3.53v1.177h-.908v1.917c0 .807.135 1.412.437 1.917.269.403.672.74 1.176.975V2.388h1.58zm9.075.067v1.312h-3.092v1.681h3.596V2.354h2.084v1.884h.874v1.278h-.874v2.253h-2.084V6.726h-4.403c-.403 0-.739-.1-.941-.269-.201-.168-.302-.437-.302-.773V2.455h5.142zm-2.353 6.222h5.009v1.278h-5.815c-.404 0-.74-.101-.941-.27-.202-.2-.303-.436-.303-.773V7.264h2.084v1.413h-.034zm-10.419 2.993v.538h.941v-.538h2.017v1.177h.773V11.57h2.084v4.07h-2.084v-1.48h-.773v1.244h-3.698c-.403 0-.739-.1-.941-.269-.201-.168-.336-.437-.336-.773v-2.69h2.017zm.571 4.238v.37h3.193v-.37h2.084v3.262h-6.083c-.404 0-.74-.101-.941-.27-.202-.167-.303-.436-.303-.773v-2.22h2.05zm-.571-2.455v.706h.941v-.706h-.941zm.571 4.035v.505h3.193v-.505h-3.193zm11.596-5.314c.471.404.706.908.706 1.513 0 .606-.235 1.11-.706 1.514-.504.47-1.21.706-2.05.706-.874 0-1.546-.236-2.05-.706-.471-.404-.673-.908-.673-1.514 0-.605.236-1.11.673-1.513.504-.47 1.21-.706 2.05-.706.84 0 1.546.235 2.05.706zm-1.949 5.717h5.31v1.278h-6.117c-.437 0-.739-.1-.941-.269-.202-.168-.336-.437-.336-.773v-1.682h2.084v1.446zm-.706-4.977c-.135.202-.202.47-.202.773 0 .303.067.572.202.774.134.235.336.336.605.336.269 0 .47-.1.605-.336.134-.202.202-.437.202-.774 0-.302-.068-.571-.202-.773a.752.752 0 00-.605-.336c-.269 0-.471.1-.605.336zm5.949-1.345v5.414h-2.084V11.57h2.084z"/></g><defs><clipPath id="clip0_430_57771"><path fill="#fff" d="M0 0h310v34H0z"/></clipPath></defs></svg>
